svg/add-shield.svg

<?xml version="1.0" encoding="UTF-8"?>
<svg xmlns="http://www.w3.org/2000/svg" xmlns:xlink="http://www.w3.org/1999/xlink" width="32" height="32" viewBox="0 0 32 32">
<defs>
<clipPath id="clip-0">
<path clip-rule="nonzero" d="M 1.875 0 L 30.125 0 L 30.125 31.875 L 1.875 31.875 Z M 1.875 0 "/>
</clipPath>
<clipPath id="clip-1">
<path clip-rule="nonzero" d="M 0 32 L 0 0 L 32 0 L 32 32 Z M 16 5.632812 C 11.355469 5.632812 7.550781 9.433594 7.550781 14.078125 C 7.550781 18.726562 11.355469 22.527344 16 22.527344 C 20.644531 22.527344 24.449219 18.726562 24.449219 14.078125 C 24.449219 9.433594 20.644531 5.632812 16 5.632812 "/>
</clipPath>
</defs>
<g clip-path="url(#clip-0)">
<g clip-path="url(#clip-1)">
<path fill-rule="nonzero" fill="rgb(0%, 0%, 0%)" fill-opacity="1" d="M 16.011719 31.875 L 15.734375 31.746094 C 15.59375 31.683594 1.921875 25.140625 1.921875 5.648438 L 1.921875 5.132812 L 2.421875 5.023438 C 7.160156 3.984375 9.957031 2.511719 12 1.433594 C 13.585938 0.601562 14.734375 0 16 0 C 17.265625 0 18.414062 0.601562 20 1.433594 C 22.042969 2.511719 24.839844 3.980469 29.578125 5.023438 L 30.078125 5.132812 L 30.078125 5.648438 C 30.078125 24.496094 16.425781 31.664062 16.289062 31.734375 Z M 16.011719 31.875 "/>
</g>
</g>
<path fill-rule="nonzero" fill="rgb(0%, 0%, 0%)" fill-opacity="1" d="M 16 7.039062 C 12.128906 7.039062 8.960938 10.207031 8.960938 14.078125 C 8.960938 17.953125 12.128906 21.121094 16 21.121094 C 19.871094 21.121094 23.039062 17.953125 23.039062 14.078125 C 23.039062 10.207031 19.871094 7.039062 16 7.039062 M 19.449219 14.785156 L 16.703125 14.785156 L 16.703125 17.53125 C 16.703125 17.953125 16.421875 18.234375 16 18.234375 C 15.578125 18.234375 15.296875 17.953125 15.296875 17.53125 L 15.296875 14.785156 L 12.550781 14.785156 C 12.128906 14.785156 11.847656 14.503906 11.847656 14.078125 C 11.847656 13.65625 12.128906 13.375 12.550781 13.375 L 15.296875 13.375 L 15.296875 10.558594 C 15.296875 10.136719 15.578125 9.855469 16 9.855469 C 16.421875 9.855469 16.703125 10.136719 16.703125 10.558594 L 16.703125 13.375 L 19.449219 13.375 C 19.871094 13.375 20.152344 13.65625 20.152344 14.078125 C 20.152344 14.503906 19.871094 14.785156 19.449219 14.785156 "/>
</svg>

<svg role="img" viewBox="0 0 32 32" xmlns="http://www.w3.org/2000/svg"><defs><clipPath id="add-shield_svg__a"><path d="M1.875 0h28.25v31.875H1.875Zm0 0"/></clipPath><clipPath id="add-shield_svg__b"><path d="M0 32V0h32v32ZM16 5.633c-4.645 0-8.45 3.8-8.45 8.445 0 4.649 3.805 8.45 8.45 8.45s8.45-3.801 8.45-8.45c0-4.644-3.805-8.445-8.45-8.445"/></clipPath></defs><g clip-path="url(#add-shield_svg__a)"><g clip-path="url(#add-shield_svg__b)"><path d="m16.012 31.875-.278-.129c-.14-.062-13.812-6.605-13.812-26.098v-.515l.5-.11C7.16 3.984 9.957 2.512 12 1.433 13.586.603 14.734 0 16 0s2.414.602 4 1.434c2.043 1.078 4.84 2.546 9.578 3.59l.5.109v.515c0 18.848-13.652 26.016-13.789 26.086Zm0 0"/></g></g><path d="M16 7.04c-3.871 0-7.04 3.167-7.04 7.038 0 3.875 3.169 7.043 7.04 7.043s7.04-3.168 7.04-7.043c0-3.871-3.169-7.039-7.04-7.039m3.45 7.746h-2.747v2.746c0 .422-.281.703-.703.703s-.703-.28-.703-.703v-2.746H12.55c-.422 0-.703-.281-.703-.707 0-.422.28-.703.703-.703h2.746v-2.816c0-.422.281-.704.703-.704s.703.282.703.704v2.816h2.746c.422 0 .703.281.703.703 0 .426-.28.707-.703.707"/></svg>
